X:1
T:Lone thw Plow-boy
M:4/4
L:1/8
K:F
 AA| CF FG A2 A3/2 A/2| cc BA G2 G2| CF GA BB B3/2 B/2| dd cB A2| G2|\
 CF FG AA A3/2 A/2| cc BA G2 G2| CF GA B2 B3/2 B/2| cA AG F2||
